gos-pohoronq/img/arrow-right.svg

<svg width="10" height="21" viewBox="0 0 10 21" fill="none" xmlns="http://www.w3.org/2000/svg">
<path d="M1.50025 20.7719C1.20818 20.7726 0.925136 20.6532 0.700246 20.4344C0.573673 20.3112 0.469046 20.16 0.392356 19.9892C0.315666 19.8185 0.268421 19.6317 0.253326 19.4395C0.238231 19.2473 0.255584 19.0535 0.304389 18.8692C0.353195 18.6849 0.432494 18.5137 0.537746 18.3654L6.13774 10.5002L0.737747 2.6203C0.633915 2.4702 0.556375 2.2975 0.509585 2.11211C0.462796 1.92672 0.447679 1.7323 0.465103 1.54003C0.482527 1.34776 0.532148 1.16143 0.611115 0.991744C0.690082 0.82206 0.796838 0.672369 0.925247 0.551276C1.05458 0.417689 1.20604 0.316927 1.37011 0.255313C1.53419 0.193699 1.70735 0.172563 1.87871 0.193231C2.05008 0.213899 2.21596 0.275925 2.36594 0.375417C2.51591 0.474909 2.64675 0.609718 2.75025 0.771384L8.78774 9.57573C8.9716 9.8383 9.0721 10.1676 9.0721 10.5075C9.0721 10.8474 8.9716 11.1768 8.78774 11.4393L2.53775 20.2437C2.41235 20.4212 2.25306 20.5616 2.0728 20.6534C1.89253 20.7452 1.69638 20.7858 1.50025 20.7719Z" fill="#343434"/>
</svg>

<svg width="10" height="21" fill="none" xmlns="http://www.w3.org/2000/svg"><path d="M1.5 20.772c-.292 0-.575-.119-.8-.338a1.447 1.447 0 01-.308-.445 1.71 1.71 0 01-.088-1.12 1.56 1.56 0 01.234-.504l5.6-7.865-5.4-7.88a1.568 1.568 0 01-.228-.508 1.712 1.712 0 01.1-1.12c.08-.17.186-.32.314-.44.13-.134.281-.235.445-.297a1.092 1.092 0 01.996.12c.15.1.28.235.384.396l6.038 8.805c.184.262.284.592.284.931 0 .34-.1.67-.284.932l-6.25 8.805a1.291 1.291 0 01-.465.41c-.18.091-.377.132-.573.118z" fill="#343434"/></svg>
